icons/modern/left-arrow-curving-right.svg

<svg width="32" height="32" viewBox="0 0 32 32" fill="none" xmlns="http://www.w3.org/2000/svg">
<g filter="url(#filter0_ii_18590_848)">
<rect x="2.0658" y="1.6875" width="27.875" height="27.875" rx="3.6" fill="url(#paint0_linear_18590_848)"/>
<rect x="2.0658" y="1.6875" width="27.875" height="27.875" rx="3.6" fill="url(#paint1_radial_18590_848)"/>
</g>
<g filter="url(#filter1_f_18590_848)">
<path d="M28.2533 4.1875V27.0625" stroke="url(#paint2_linear_18590_848)" stroke-width="1.5" stroke-linecap="round"/>
</g>
<g filter="url(#filter2_f_18590_848)">
<path d="M5.52966 3.5H27.3109" stroke="url(#paint3_linear_18590_848)" stroke-width="1.5" stroke-linecap="round"/>
</g>
<g filter="url(#filter3_f_18590_848)">
<path d="M13.5525 6.41919C9.68802 6.42109 6.55579 9.77822 6.55579 13.9192C6.55579 18.0613 9.68979 21.4192 13.5558 21.4192H20.3057C20.4438 21.4192 20.5557 21.5311 20.5557 21.6692V24.0793C20.5557 24.7619 21.3935 25.0896 21.8567 24.5882L26.0856 20.0102C26.3511 19.7228 26.3511 19.2797 26.0856 18.9924L21.8567 14.4144C21.3935 13.913 20.5557 14.2407 20.5557 14.9233V17.1692C20.5557 17.3073 20.4438 17.4192 20.3057 17.4192H13.5558C12.1544 17.4192 10.5558 16.1166 10.5558 13.9192C10.5558 11.7218 12.1544 10.4192 13.5558 10.4192H19.5557C20.108 10.4192 20.5557 9.97147 20.5557 9.41919V7.41919C20.5557 6.8669 20.108 6.41919 19.5557 6.41919H13.5558L13.5525 6.41919Z" fill="#579FFF"/>
</g>
<g filter="url(#filter4_ii_18590_848)">
<path d="M13.5525 6.41919C9.68802 6.42109 6.55579 9.77822 6.55579 13.9192C6.55579 18.0613 9.68979 21.4192 13.5558 21.4192H20.3057C20.4438 21.4192 20.5557 21.5311 20.5557 21.6692V24.0793C20.5557 24.7619 21.3935 25.0896 21.8567 24.5882L26.0856 20.0102C26.3511 19.7228 26.3511 19.2797 26.0856 18.9924L21.8567 14.4144C21.3935 13.913 20.5557 14.2407 20.5557 14.9233V17.1692C20.5557 17.3073 20.4438 17.4192 20.3057 17.4192H13.5558C12.1544 17.4192 10.5558 16.1166 10.5558 13.9192C10.5558 11.7218 12.1544 10.4192 13.5558 10.4192H19.5557C20.108 10.4192 20.5557 9.97147 20.5557 9.41919V7.41919C20.5557 6.8669 20.108 6.41919 19.5557 6.41919H13.5558L13.5525 6.41919Z" fill="#FCF2FF"/>
</g>
<defs>
<filter id="filter0_ii_18590_848" x="2.0658" y="0.6875" width="28.875" height="28.875" filterUnits="userSpaceOnUse" color-interpolation-filters="sRGB">
<feFlood flood-opacity="0" result="BackgroundImageFix"/>
<feBlend mode="normal" in="SourceGraphic" in2="BackgroundImageFix" result="shape"/>
<feColorMatrix in="SourceAlpha" type="matrix" values="0 0 0 0 0 0 0 0 0 0 0 0 0 0 0 0 0 0 127 0" result="hardAlpha"/>
<feOffset dx="1" dy="-1"/>
<feGaussianBlur stdDeviation="1.5"/>
<feComposite in2="hardAlpha" operator="arithmetic" k2="-1" k3="1"/>
<feColorMatrix type="matrix" values="0 0 0 0 0.188235 0 0 0 0 0.470588 0 0 0 0 0.843137 0 0 0 1 0"/>
<feBlend mode="normal" in2="shape" result="effect1_innerShadow_18590_848"/>
<feColorMatrix in="SourceAlpha" type="matrix" values="0 0 0 0 0 0 0 0 0 0 0 0 0 0 0 0 0 0 127 0" result="hardAlpha"/>
<feOffset dy="-1"/>
<feGaussianBlur stdDeviation="1.5"/>
<feComposite in2="hardAlpha" operator="arithmetic" k2="-1" k3="1"/>
<feColorMatrix type="matrix" values="0 0 0 0 0.27451 0 0 0 0 0.34902 0 0 0 0 0.8 0 0 0 1 0"/>
<feBlend mode="normal" in2="effect1_innerShadow_18590_848" result="effect2_innerShadow_18590_848"/>
</filter>
<filter id="filter1_f_18590_848" x="25.5033" y="1.4375" width="5.5" height="28.375" filterUnits="userSpaceOnUse" color-interpolation-filters="sRGB">
<feFlood flood-opacity="0" result="BackgroundImageFix"/>
<feBlend mode="normal" in="SourceGraphic" in2="BackgroundImageFix" result="shape"/>
<feGaussianBlur stdDeviation="1" result="effect1_foregroundBlur_18590_848"/>
</filter>
<filter id="filter2_f_18590_848" x="2.77966" y="0.75" width="27.2812" height="5.5" filterUnits="userSpaceOnUse" color-interpolation-filters="sRGB">
<feFlood flood-opacity="0" result="BackgroundImageFix"/>
<feBlend mode="normal" in="SourceGraphic" in2="BackgroundImageFix" result="shape"/>
<feGaussianBlur stdDeviation="1" result="effect1_foregroundBlur_18590_848"/>
</filter>
<filter id="filter3_f_18590_848" x="5.55579" y="5.41919" width="21.7289" height="20.4116" filterUnits="userSpaceOnUse" color-interpolation-filters="sRGB">
<feFlood flood-opacity="0" result="BackgroundImageFix"/>
<feBlend mode="normal" in="SourceGraphic" in2="BackgroundImageFix" result="shape"/>
<feGaussianBlur stdDeviation="0.5" result="effect1_foregroundBlur_18590_848"/>
</filter>
<filter id="filter4_ii_18590_848" x="5.95579" y="6.01919" width="20.7289" height="19.4116" filterUnits="userSpaceOnUse" color-interpolation-filters="sRGB">
<feFlood flood-opacity="0" result="BackgroundImageFix"/>
<feBlend mode="normal" in="SourceGraphic" in2="BackgroundImageFix" result="shape"/>
<feColorMatrix in="SourceAlpha" type="matrix" values="0 0 0 0 0 0 0 0 0 0 0 0 0 0 0 0 0 0 127 0" result="hardAlpha"/>
<feOffset dx="-0.6" dy="0.6"/>
<feGaussianBlur stdDeviation="0.5"/>
<feComposite in2="hardAlpha" operator="arithmetic" k2="-1" k3="1"/>
<feColorMatrix type="matrix" values="0 0 0 0 0.866667 0 0 0 0 0.819608 0 0 0 0 0.941176 0 0 0 1 0"/>
<feBlend mode="normal" in2="shape" result="effect1_innerShadow_18590_848"/>
<feColorMatrix in="SourceAlpha" type="matrix" values="0 0 0 0 0 0 0 0 0 0 0 0 0 0 0 0 0 0 127 0" result="hardAlpha"/>
<feOffset dx="0.4" dy="-0.4"/>
<feGaussianBlur stdDeviation="0.5"/>
<feComposite in2="hardAlpha" operator="arithmetic" k2="-1" k3="1"/>
<feColorMatrix type="matrix" values="0 0 0 0 1 0 0 0 0 0.988235 0 0 0 0 1 0 0 0 1 0"/>
<feBlend mode="normal" in2="effect1_innerShadow_18590_848" result="effect2_innerShadow_18590_848"/>
</filter>
<linearGradient id="paint0_linear_18590_848" x1="16.0033" y1="5.26201" x2="16.0033" y2="38.5147" gradientUnits="userSpaceOnUse">
<stop stop-color="#5CB7FF"/>
<stop offset="1" stop-color="#4878DD"/>
</linearGradient>
<radialGradient id="paint1_radial_18590_848" cx="0" cy="0" r="1" gradientUnits="userSpaceOnUse" gradientTransform="translate(27.722 3.78125) rotate(136.771) scale(2.14444 2.50466)">
<stop stop-color="#7BD7FF"/>
<stop offset="1" stop-color="#7BD7FF" stop-opacity="0"/>
</radialGradient>
<linearGradient id="paint2_linear_18590_848" x1="28.7533" y1="4.1875" x2="28.7533" y2="27.0625" gradientUnits="userSpaceOnUse">
<stop stop-color="#7FD9FF"/>
<stop offset="1" stop-color="#639DF4"/>
</linearGradient>
<linearGradient id="paint3_linear_18590_848" x1="28.4672" y1="3.75002" x2="2.93591" y2="3.75002" gradientUnits="userSpaceOnUse">
<stop stop-color="#7DD8FF"/>
<stop offset="1" stop-color="#5DB6FF"/>
</linearGradient>
</defs>
</svg>

<svg width="32" height="32" fill="none" xmlns="http://www.w3.org/2000/svg"><g filter="url(#a)"><rect x="2.066" y="1.688" width="27.875" height="27.875" rx="3.6" fill="url(#b)"/><rect x="2.066" y="1.688" width="27.875" height="27.875" rx="3.6" fill="url(#c)"/></g><g filter="url(#d)"><path d="M28.253 4.188v22.875" stroke="url(#e)" stroke-width="1.5" stroke-linecap="round"/></g><g filter="url(#f)"><path d="M5.53 3.5h21.78" stroke="url(#g)" stroke-width="1.5" stroke-linecap="round"/></g><g filter="url(#h)"><path d="M13.553 6.42c-3.865.001-6.997 3.358-6.997 7.5 0 4.141 3.134 7.5 7 7.5h6.75a.25.25 0 0 1 .25.25v2.41a.75.75 0 0 0 1.3.508l4.23-4.578a.75.75 0 0 0 0-1.018l-4.23-4.578a.75.75 0 0 0-1.3.51v2.245a.25.25 0 0 1-.25.25h-6.75c-1.402 0-3-1.302-3-3.5 0-2.197 1.598-3.5 3-3.5h6a1 1 0 0 0 1-1v-2a1 1 0 0 0-1-1h-6.003Z" fill="#579FFF"/></g><g filter="url(#i)"><path d="M13.553 6.42c-3.865.001-6.997 3.358-6.997 7.5 0 4.141 3.134 7.5 7 7.5h6.75a.25.25 0 0 1 .25.25v2.41a.75.75 0 0 0 1.3.508l4.23-4.578a.75.75 0 0 0 0-1.018l-4.23-4.578a.75.75 0 0 0-1.3.51v2.245a.25.25 0 0 1-.25.25h-6.75c-1.402 0-3-1.302-3-3.5 0-2.197 1.598-3.5 3-3.5h6a1 1 0 0 0 1-1v-2a1 1 0 0 0-1-1h-6.003Z" fill="#FCF2FF"/></g><defs><filter id="a" x="2.066" y=".688" width="28.875" height="28.875" filterUnits="userSpaceOnUse" color-interpolation-filters="sRGB"><feFlood flood-opacity="0" result="BackgroundImageFix"/><feBlend in="SourceGraphic" in2="BackgroundImageFix" result="shape"/><feColorMatrix in="SourceAlpha" values="0 0 0 0 0 0 0 0 0 0 0 0 0 0 0 0 0 0 127 0" result="hardAlpha"/><feOffset dx="1" dy="-1"/><feGaussianBlur stdDeviation="1.5"/><feComposite in2="hardAlpha" operator="arithmetic" k2="-1" k3="1"/><feColorMatrix values="0 0 0 0 0.188235 0 0 0 0 0.470588 0 0 0 0 0.843137 0 0 0 1 0"/><feBlend in2="shape" result="effect1_innerShadow_18590_848"/><feColorMatrix in="SourceAlpha" values="0 0 0 0 0 0 0 0 0 0 0 0 0 0 0 0 0 0 127 0" result="hardAlpha"/><feOffset dy="-1"/><feGaussianBlur stdDeviation="1.5"/><feComposite in2="hardAlpha" operator="arithmetic" k2="-1" k3="1"/><feColorMatrix values="0 0 0 0 0.27451 0 0 0 0 0.34902 0 0 0 0 0.8 0 0 0 1 0"/><feBlend in2="effect1_innerShadow_18590_848" result="effect2_innerShadow_18590_848"/></filter><filter id="d" x="25.503" y="1.438" width="5.5" height="28.375" filterUnits="userSpaceOnUse" color-interpolation-filters="sRGB"><feFlood flood-opacity="0" result="BackgroundImageFix"/><feBlend in="SourceGraphic" in2="BackgroundImageFix" result="shape"/><feGaussianBlur stdDeviation="1" result="effect1_foregroundBlur_18590_848"/></filter><filter id="f" x="2.78" y=".75" width="27.281" height="5.5" filterUnits="userSpaceOnUse" color-interpolation-filters="sRGB"><feFlood flood-opacity="0" result="BackgroundImageFix"/><feBlend in="SourceGraphic" in2="BackgroundImageFix" result="shape"/><feGaussianBlur stdDeviation="1" result="effect1_foregroundBlur_18590_848"/></filter><filter id="h" x="5.556" y="5.419" width="21.729" height="20.412" filterUnits="userSpaceOnUse" color-interpolation-filters="sRGB"><feFlood flood-opacity="0" result="BackgroundImageFix"/><feBlend in="SourceGraphic" in2="BackgroundImageFix" result="shape"/><feGaussianBlur stdDeviation=".5" result="effect1_foregroundBlur_18590_848"/></filter><filter id="i" x="5.956" y="6.019" width="20.729" height="19.412" filterUnits="userSpaceOnUse" color-interpolation-filters="sRGB"><feFlood flood-opacity="0" result="BackgroundImageFix"/><feBlend in="SourceGraphic" in2="BackgroundImageFix" result="shape"/><feColorMatrix in="SourceAlpha" values="0 0 0 0 0 0 0 0 0 0 0 0 0 0 0 0 0 0 127 0" result="hardAlpha"/><feOffset dx="-.6" dy=".6"/><feGaussianBlur stdDeviation=".5"/><feComposite in2="hardAlpha" operator="arithmetic" k2="-1" k3="1"/><feColorMatrix values="0 0 0 0 0.866667 0 0 0 0 0.819608 0 0 0 0 0.941176 0 0 0 1 0"/><feBlend in2="shape" result="effect1_innerShadow_18590_848"/><feColorMatrix in="SourceAlpha" values="0 0 0 0 0 0 0 0 0 0 0 0 0 0 0 0 0 0 127 0" result="hardAlpha"/><feOffset dx=".4" dy="-.4"/><feGaussianBlur stdDeviation=".5"/><feComposite in2="hardAlpha" operator="arithmetic" k2="-1" k3="1"/><feColorMatrix values="0 0 0 0 1 0 0 0 0 0.988235 0 0 0 0 1 0 0 0 1 0"/><feBlend in2="effect1_innerShadow_18590_848" result="effect2_innerShadow_18590_848"/></filter><linearGradient id="b" x1="16.003" y1="5.262" x2="16.003" y2="38.515" gradientUnits="userSpaceOnUse"><stop stop-color="#5CB7FF"/><stop offset="1" stop-color="#4878DD"/></linearGradient><linearGradient id="e" x1="28.753" y1="4.188" x2="28.753" y2="27.063" gradientUnits="userSpaceOnUse"><stop stop-color="#7FD9FF"/><stop offset="1" stop-color="#639DF4"/></linearGradient><linearGradient id="g" x1="28.467" y1="3.75" x2="2.936" y2="3.75" gradientUnits="userSpaceOnUse"><stop stop-color="#7DD8FF"/><stop offset="1" stop-color="#5DB6FF"/></linearGradient><radialGradient id="c" cx="0" cy="0" r="1" gradientUnits="userSpaceOnUse" gradientTransform="matrix(-1.56249 1.46876 -1.71548 -1.82495 27.722 3.781)"><stop stop-color="#7BD7FF"/><stop offset="1" stop-color="#7BD7FF" stop-opacity="0"/></radialGradient></defs></svg>
